X: 1
T:Cape Breton Reel
R:reel
D:Kevin Conneff: The Week before Easter
Z:id:hn-reel-752
M:C|
K:D
FA~A2 BAFA|BAFA Bdd2|FA~A2 BAFA|BdAF EFD2:|
|:~f3e d3A|BAFA BAF2|~f3e d3A|BdAF EFD2:|
